icon/ir/keyframes.svg

<svg stroke-width="1.5" viewBox="0 0 24 24" fill="none" xmlns="http://www.w3.org/2000/svg" height="1em" width="1em">
  <path d="M13.8476 13.317L9.50515 18.2798C8.70833 19.1905 7.29167 19.1905 6.49485 18.2798L2.15238 13.317C1.49259 12.563 1.49259 11.437 2.15238 10.683L6.49485 5.72018C7.29167 4.80952 8.70833 4.80952 9.50515 5.72017L13.8476 10.683C14.5074 11.437 14.5074 12.563 13.8476 13.317Z" stroke="currentColor" stroke-linecap="round" stroke-linejoin="round"/>
  <path d="M13 19L17.8844 13.3016C18.5263 12.5526 18.5263 11.4474 17.8844 10.6984L13 5" stroke="currentColor" stroke-linecap="round" stroke-linejoin="round"/>
  <path d="M17 19L21.8844 13.3016C22.5263 12.5526 22.5263 11.4474 21.8844 10.6984L17 5" stroke="currentColor" stroke-linecap="round" stroke-linejoin="round"/>
</svg>

<svg width="24" height="24" stroke-width="1.5" fill="none" xmlns="http://www.w3.org/2000/svg"><path d="M13.848 13.317 9.505 18.28a2 2 0 0 1-3.01 0l-4.343-4.963a2 2 0 0 1 0-2.634L6.495 5.72a2 2 0 0 1 3.01 0l4.343 4.963a2 2 0 0 1 0 2.634Z" stroke="currentColor" stroke-linecap="round" stroke-linejoin="round"/><path d="m13 19 4.884-5.698a2 2 0 0 0 0-2.604L13 5" stroke="currentColor" stroke-linecap="round" stroke-linejoin="round"/><path d="m17 19 4.884-5.698a2 2 0 0 0 0-2.604L17 5" stroke="currentColor" stroke-linecap="round" stroke-linejoin="round"/></svg>
